!!! OTL: Berkowitz180
!!! Chapter: 1
!!! Section: I
!!! Page: 41
!!! Mode: 
!!! Encoder: DJB
**kern
*staff1
*I"Piano
=1-
*clefF4
*k[b-e-a-d-]
*f:
*M4/4
8.F\L
16G\Jk
8.A-\L
16B-\Jk
4c\
8.F\L
16E-\Jk
=2
8.D-\L
16F\Jk
8.A-\L
16F\Jk
4D-\
4C/
=3
8BB-/L
8C/
8D-/
8C/J
8D-\L
8E-\
8F\
8D-\J
=4
8C\L
8Dn\
8En\
8F\J
4G\
4C/
=5
8.F\L
16A-\Jk
8.c\L
16A-\Jk
4F\
4E-\
=6
!!linebreak:original
8.D-\L
16F\Jk
8.A-\L
16F\Jk
4D-\
4r
=7
8BB-/L
8C/
8D-/
8BB-/J
8C\L
8En\
8F\
8G\J
=8
8F\L
8C\J
8.A-\L
16G\Jk
4F\
4r
==
*-
